style/svgs/sort_up_empty.svg

<svg width="24" height="24" xmlns="http://www.w3.org/2000/svg" fill-rule="evenodd" clip-rule="evenodd"><path d="M24 12c0 6.623-5.377 12-12 12s-12-5.377-12-12 5.377-12 12-12 12 5.377 12 12zm-1 0c0 6.071-4.929 11-11 11s-11-4.929-11-11 4.929-11 11-11 11 4.929 11 11zm-11.5-4.828l-3.763 4.608-.737-.679 5-6.101 5 6.112-.753.666-3.747-4.604v11.826h-1v-11.828z"/></svg>

<svg xmlns="http://www.w3.org/2000/svg" width="24" height="24" fill-rule="evenodd" clip-rule="evenodd"><path d="M24 12c0 6.623-5.377 12-12 12S0 18.623 0 12 5.377 0 12 0s12 5.377 12 12zm-1 0c0 6.071-4.929 11-11 11S1 18.071 1 12 5.929 1 12 1s11 4.929 11 11zM11.5 7.172 7.737 11.78 7 11.101 12 5l5 6.112-.753.666L12.5 7.174V19h-1V7.172z"/></svg>
